assets/Alura.svg

<?xml version="1.0"?>
<svg width="32" height="47" xmlns="http://www.w3.org/2000/svg" xmlns:svg="http://www.w3.org/2000/svg">
 <g class="layer">
  <title>Layer 1</title>
  <path clip-rule="evenodd" d="m23.3958,23.2683c-0.0434,0.2687 -0.1492,0.5245 -0.3095,0.7482c-0.1603,0.2236 -0.3709,0.4094 -0.616,0.5432c-0.4937,0.308 -0.9256,0.462 -1.3626,0.616c-0.9307,0.3104 -1.9103,0.6209 -2.9464,0.981c-1.0926,0.3602 -2.0722,0.7203 -2.9463,0.9811c-1.0901,0.3601 -2.1262,0.6706 -3.1109,1.0307c-0.7408,0.3062 -1.4367,0.7054 -2.0696,1.1872c-0.58866,0.5152 -1.10238,1.105 -1.52716,1.7534c-0.43707,0.7203 -0.71216,1.6492 -0.71216,2.732c0,2.1683 0.54504,3.8174 1.63771,4.8481c1.09011,1.0854 3.11091,1.5995 6.10601,1.5995c3.0543,0 5.1265,-0.5663 6.2218,-1.7013c1.0875,-1.135 1.6325,-2.732 1.6325,-4.7935l0,-10.5256l0.0026,0zm-7.8543,-22.8496c5.3476,0 9.2735,0.98104 11.7802,2.9928c2.5093,1.96208 3.7639,4.48546 3.7639,7.4758l0,25.4822c0,1.0307 -0.216,2.1657 -0.5965,3.4026c-0.3856,1.2418 -1.1466,2.3744 -2.3473,3.4026c-1.1441,1.0357 -2.7252,1.9124 -4.7434,2.583c-2.0182,0.6706 -4.6355,1.0307 -7.8543,1.0307c-3.2137,0 -5.83612,-0.3601 -7.85176,-1.0307c-2.01564,-0.6706 -3.59936,-1.5473 -4.74344,-2.583c-1.0643,-0.9266 -1.87056,-2.0966 -2.34472,-3.4026c-0.38565,-1.2344 -0.60418,-2.3694 -0.60418,-3.4001l0,-4.0732c0,-2.1682 0.59904,-4.18 1.79968,-5.9359c1.20064,-1.8032 2.88977,-3.04 5.07252,-3.8149c1.09009,-0.3601 2.34472,-0.7203 3.7613,-1.1847c1.4192,-0.4669 2.7253,-0.9314 4.0364,-1.3412c1.3112,-0.4147 2.4553,-0.8295 3.4349,-1.1921c0.5911,-0.2285 1.1915,-0.434 1.7996,-0.616l0.9822,-0.4644c0.3856,-0.2062 0.7635,-0.5166 1.1466,-0.9289c0.3805,-0.4098 0.707,-0.8742 0.9821,-1.3908c0.2907,-0.5594 0.4404,-1.1773 0.4371,-1.8032l0,-1.6516c0.004,-0.6053 -0.1275,-1.2043 -0.3857,-1.7559c-0.2159,-0.62094 -0.653,-1.18721 -1.252,-1.70133c-0.5991,-0.5166 -1.4192,-0.92888 -2.3987,-1.24182c-0.9822,-0.30549 -2.2882,-0.46196 -3.7639,-0.46196c-3.0544,0 -5.0726,0.57124 -6.16265,1.75346c-0.92555,1.0332 -1.4706,2.32225 -1.57858,3.76525c0,0.3104 -0.27252,0.5166 -0.6016,0.5166l-6.6511,0.1043c-0.15799,0.0006 -0.30986,-0.059 -0.42254,-0.166c-0.11267,-0.107 -0.17704,-0.2527 -0.17907,-0.4053l0,-1.4902c0,-1.44793 0.27509,-2.7891 0.87413,-4.07811c0.60161,-1.29149 1.52973,-2.37188 2.78179,-3.30325c1.25463,-0.9264 2.89234,-1.69881 4.85399,-2.21541c1.91023,-0.62091 4.25493,-0.87673 6.98013,-0.87673l-0.0051,0z" fill="url(#svg_5)" fill-rule="evenodd" id="svg_1"/>
 </g>
 <defs>
  <linearGradient id="svg_5" x1="0" x2="1" y1="0" y2="1">
   <stop offset="0" stop-color="#50b498" stop-opacity="0.988281"/>
   <stop offset="1" stop-color="#4b3acf" stop-opacity="0.992188"/>
  </linearGradient>
 </defs>
</svg>

<svg width="32" height="47" viewBox="0 0 32 47" fill="red" xmlns="http://www.w3.org/2000/svg">
<path fill-rule="evenodd" clip-rule="evenodd" d="M23.3958 23.2683C23.3524 23.537 23.2466 23.7928 23.0863 24.0165C22.926 24.2401 22.7154 24.4259 22.4703 24.5597C21.9766 24.8677 21.5447 25.0217 21.1077 25.1757C20.177 25.4861 19.1974 25.7966 18.1613 26.1567C17.0687 26.5169 16.0891 26.877 15.215 27.1378C14.1249 27.4979 13.0888 27.8084 12.1041 28.1685C11.3633 28.4747 10.6674 28.8739 10.0345 29.3557C9.44584 29.8709 8.93212 30.4607 8.50734 31.1091C8.07027 31.8294 7.79518 32.7583 7.79518 33.8411C7.79518 36.0094 8.34022 37.6585 9.43289 38.6892C10.523 39.7746 12.5438 40.2887 15.5389 40.2887C18.5932 40.2887 20.6654 39.7224 21.7607 38.5874C22.8482 37.4524 23.3932 35.8554 23.3932 33.7939V23.2683H23.3958ZM15.5415 0.418701C20.8891 0.418701 24.815 1.39974 27.3217 3.4115C29.831 5.37358 31.0856 7.89696 31.0856 10.8873V36.3695C31.0856 37.4002 30.8696 38.5352 30.4891 39.7721C30.1035 41.0139 29.3425 42.1465 28.1418 43.1747C26.9977 44.2104 25.4166 45.0871 23.3984 45.7577C21.3802 46.4283 18.7629 46.7884 15.5441 46.7884C12.3304 46.7884 9.70798 46.4283 7.69234 45.7577C5.6767 45.0871 4.09298 44.2104 2.9489 43.1747C1.8846 42.2481 1.07834 41.0781 0.604178 39.7721C0.218532 38.5377 0 37.4027 0 36.372V32.2988C0 30.1306 0.599036 28.1188 1.79968 26.3629C3.00032 24.5597 4.68945 23.3229 6.8722 22.548C7.96229 22.1879 9.21692 21.8277 10.6335 21.3633C12.0527 20.8964 13.3588 20.4319 14.6699 20.0221C15.9811 19.6074 17.1252 19.1926 18.1048 18.83C18.6959 18.6015 19.2963 18.396 19.9044 18.214L20.8866 17.7496C21.2722 17.5434 21.6501 17.233 22.0332 16.8207C22.4137 16.4109 22.7402 15.9465 23.0153 15.4299C23.306 14.8705 23.4557 14.2526 23.4524 13.6267V11.9751C23.4564 11.3698 23.3249 10.7708 23.0667 10.2192C22.8508 9.59826 22.4137 9.03199 21.8147 8.51787C21.2156 8.00127 20.3955 7.58899 19.416 7.27605C18.4338 6.97056 17.1278 6.81409 15.6521 6.81409C12.5977 6.81409 10.5795 7.38533 9.48945 8.56755C8.5639 9.60075 8.01885 10.8898 7.91087 12.3328C7.91087 12.6432 7.63835 12.8494 7.30927 12.8494L0.658168 12.9537C0.500177 12.9543 0.348309 12.8947 0.235632 12.7877C0.122956 12.6807 0.0585941 12.535 0.0565613 12.3824V10.8922C0.0565613 9.44427 0.331655 8.1031 0.930691 6.81409C1.5323 5.5226 2.46042 4.44221 3.71248 3.51084C4.96711 2.58444 6.60482 1.81203 8.56647 1.29543C10.4767 0.674517 12.8214 0.418701 15.5466 0.418701H15.5415Z" fill="#4e7eb1"/>
</svg>
